X:012
T:Wheatley Trunkles
M:4/4
L:1/8
Q:1/8=200
K:G
B2 dd g2 d2 | B2 dd g2 d2 | c2 cB A2 G2 | Bdec A2 G2 | 
B2 dd g2 d2 | B2 dd g2 d2 | c2 cB A2 e2 | dBdB A2 G2 :|| 
EBEB EB B2 | A2 B2 EB B2 | A2 G2 EB B2 | dBdB A2 G2 | 
E2 B2 EB B2 | A2 B2 EB B2 | A2 G2 EB B2 | dBdB A2 G2 :|| 

